Yaru++/status/symbolic/view-wrapped-symbolic-rtl.svg

<svg height="16" width="16" xmlns="http://www.w3.org/2000/svg">
  <g fill="#808080">
    <path d="m6 0c-.658 0-1.18.06-1.617.225a1.875 1.875 0 0 0 -.996.838c-.417.752-.373 1.673-.387 2.931v2.506h1v-2.5c.015-1.259.06-2.09.262-2.455.1-.183.212-.287.472-.385.26-.097.673-.16 1.266-.16h4c.592 0 1.005.063 1.265.16.26.098.372.203.473.387.202.366.247 1.194.262 2.453v7.994c-.015 1.264-.06 2.092-.262 2.46-.101.183-.213.288-.473.386-.26.097-.673.16-1.265.16h-4c-.593 0-1.006-.063-1.266-.16-.26-.098-.371-.203-.472-.387-.202-.366-.248-1.193-.262-2.453v-1h-1v1.006c.014 1.258-.03 2.179.387 2.931.207.377.557.674.996.838.438.165.96.225 1.617.225h4c.657 0 1.178-.06 1.617-.225.439-.164.79-.461.998-.837.415-.753.37-1.674.385-2.932v-8.012c-.014-1.258.03-2.179-.385-2.931a1.879 1.879 0 0 0 -.998-.838c-.439-.165-.96-.225-1.617-.225z"/>
    <path d="m1 5 5 .001c-.348.76-.737 1.535-1.166 2.323a44.09 44.09 0 0 1 -1.334 2.259c-.449-.725-.889-1.478-1.32-2.26a43.123 43.123 0 0 1 -1.18-2.323z"/>
  </g>
</svg>

<svg height="16" width="16" xmlns="http://www.w3.org/2000/svg">
    <g color="#000" fill="gray">
        <path d="M6 0c-.658 0-1.18.06-1.617.225a1.875 1.875 0 00-.996.838C2.97 1.815 3.014 2.736 3 3.994V6.5h1V4c.015-1.259.06-2.09.262-2.455.1-.183.212-.287.472-.385C4.994 1.063 5.407 1 6 1h4c.592 0 1.005.063 1.265.16.26.098.372.203.473.387.202.366.247 1.194.262 2.453v7.994c-.015 1.264-.06 2.092-.262 2.46-.101.183-.213.288-.473.386-.26.097-.673.16-1.265.16H6c-.593 0-1.006-.063-1.266-.16-.26-.098-.371-.203-.472-.387C4.06 14.087 4.014 13.26 4 12v-1H3v1.006c.014 1.258-.03 2.179.387 2.931.207.377.557.674.996.838.438.165.96.225 1.617.225h4c.657 0 1.178-.06 1.617-.225.439-.164.79-.461.998-.837.415-.753.37-1.674.385-2.932V3.994c-.014-1.258.03-2.179-.385-2.931a1.879 1.879 0 00-.998-.838C11.178.06 10.657 0 10 0z" style="line-height:normal;font-variant-ligatures:normal;font-variant-position:normal;font-variant-caps:normal;font-variant-numeric:normal;font-variant-alternates:normal;font-feature-settings:normal;text-indent:0;text-align:start;text-decoration-line:none;text-decoration-style:solid;text-decoration-color:#000;text-transform:none;text-orientation:mixed;shape-padding:0;isolation:auto;mix-blend-mode:normal;marker:none" font-weight="400" font-family="sans-serif" overflow="visible"/>
        <path d="M1 5l5 .001c-.348.76-.737 1.535-1.166 2.323A44.09 44.09 0 013.5 9.583a51.555 51.555 0 01-1.32-2.26A43.123 43.123 0 011 5z" style="marker:none" overflow="visible"/>
    </g>
</svg>
